!!!COM: Aaron Copland
!!!OTL: [T705_Cop-w7p57h45m1-h46m2]
**kern	**dynam	**kern	**dynam	**kern	**dynam	**kern	**dynam	**kern	**kern	**dynam	**kern	**kern	**dynam	**kern	**dynam	**kern	**dynam	**kern	**dynam	**kern	**dynam	**kern	**dynam	**kern	**dynam	**kern	**dynam	**kern	**dynam	**kern	**dynam
*grp:A	*grp:A	*grp:A	*grp:A	*grp:A	*grp:A	*grp:A	*grp:A	*grp:A	*grp:A	*grp:A	*grp:A	*grp:A	*grp:A	*grp:A	*grp:A	*grp:B	*grp:B	*grp:B	*grp:B	*grp:A	*grp:A	*grp:A	*grp:A	*grp:B	*grp:B	*grp:A	*grp:A	*grp:A	*grp:A	*grp:A	*grp:A
*part16	*part16	*part15	*part15	*part14	*part14	*part13	*part13	*part12	*part12	*part12	*part11	*part10	*part10	*part9	*part9	*part8	*part8	*part7	*part7	*part6	*part6	*part5	*part5	*part4	*part4	*part3	*part3	*part2	*part2	*part1	*part1
*staff17	*staff17	*staff16	*staff16	*staff15	*staff15	*staff14	*staff14	*staff13	*staff12	*staff12	*staff11	*staff10	*staff10	*staff9	*staff9	*staff8	*staff8	*staff7	*staff7	*staff6	*staff6	*staff5	*staff5	*staff4	*staff4	*staff3	*staff3	*staff2	*staff2	*staff1	*staff1
*I"Contrabass	*I"Contrabass	*I"Viola	*I"Viola	*I"Violin II	*I"Violin II	*I"Violin I	*I"Violin I	*I"Piano	*I"Piano	*I"Piano	*I"Wood Block	*I"Temple Blocks	*I"Temple Blocks	*I"Timpani	*I"Timpani	*I"Trumpet in C 2.	*I"Trumpet in C 2.	*I"Trumpet in C 1.	*I"Trumpet in C 1.	*I"Clarinet in Bb 1. 2.	*I"Clarinet in Bb 1. 2.	*I"Clarinet in Eb	*I"Clarinet in Eb	*I"Cor Anglais	*I"Cor Anglais	*I"Oboe 3.	*I"Oboe 3.	*I"Oboe 1. 2.	*I"Oboe 1. 2.	*I"Flute 1. 2. 3.	*I"Flute 1. 2. 3.
*I'Cb.	*	*I'Vla.	*	*I'Vln. II	*	*I'Vln. I	*	*I'Pno.	*	*	*I'W.Bl.	*I'T.Bl.	*	*I'Timp.	*	*I'C Tpt. 2.	*	*I'C Tpt. 1.	*	*I'Cl. 1. 2.	*	*I'Eb Cl.	*	*I'C. A.	*	*I'Ob. 3.	*	*I'Ob. 1. 2.	*	*I'Fl. 1. 2. 3.	*
!!pagebreak:original
*	*	*	*	*	*	*	*	*	*	*	*stria1	*stria3	*	*	*	*	*	*	*	*	*	*	*	*	*	*	*	*	*	*	*
*clefF4	*	*clefC3	*	*clefG2	*	*clefG2	*	*clefF4	*clefF4	*	*clefX	*clefX	*	*clefF4	*	*clefG2	*	*clefG2	*	*clefG2	*	*clefG2	*	*clefG2	*	*clefG2	*	*clefG2	*	*clefG2	*
*ITrd7c12	*	*	*	*	*	*	*	*	*	*	*	*	*	*	*	*	*	*	*	*ITrd1c2	*	*ITrd-2c-3	*	*ITrd4c7	*	*	*	*	*	*	*
*k[]	*	*k[]	*	*k[]	*	*k[]	*	*k[]	*k[]	*	*k[]	*k[]	*	*k[]	*	*k[]	*	*k[]	*	*k[b-e-]	*	*k[b-e-a-]	*	*k[b-]	*	*k[]	*	*k[]	*	*k[]	*
*	*	*	*	*	*	*	*	*	*	*	*C:	*C:	*	*	*	*	*	*	*	*	*	*	*	*	*	*	*	*	*	*	*
*M2/2	*	*M2/2	*	*M2/2	*	*M2/2	*	*M2/2	*M2/2	*	*M2/2	*M2/2	*	*M2/2	*	*M2/2	*	*M2/2	*	*M2/2	*	*M2/2	*	*M2/2	*	*M2/2	*	*M2/2	*	*M2/2	*
!!LO:REH:t=45
=1	=1	=1	=1	=1	=1	=1	=1	=1	=1	=1	=1	=1	=1	=1	=1	=1	=1	=1	=1	=1	=1	=1	=1	=1	=1	=1	=1	=1	=1	=1	=1
!	!	!	!LO:DY:t=sub. %s au talon	!	!	!	!	!	!	!	!	!	!	!LO:TX:a:i:t=molto ritmico	!LO:DY:t=sub. %s	!	!	!	!	!	!	!	!	!	!	!	!	!	!	!	!
1r	.	4F`u 4A 4c	mp	1r	.	1r	.	1r	1r	.	1r	1r	.	4BB	mp	1r	.	1r	.	1r	.	1r	.	1r	.	1r	.	1r	.	1r	.
.	.	4F`u 4A 4c	.	.	.	.	.	.	.	.	.	.	.	4F#X	.	.	.	.	.	.	.	.	.	.	.	.	.	.	.	.	.
.	.	4..F`u 4..A 4..c	.	.	.	.	.	.	.	.	.	.	.	4..FFn	.	.	.	.	.	.	.	.	.	.	.	.	.	.	.	.	.
.	.	16F`v 16A 16c	.	.	.	.	.	.	.	.	.	.	.	16AA	.	.	.	.	.	.	.	.	.	.	.	.	.	.	.	.	.
=2	=2	=2	=2	=2	=2	=2	=2	=2	=2	=2	=2	=2	=2	=2	=2	=2	=2	=2	=2	=2	=2	=2	=2	=2	=2	=2	=2	=2	=2	=2	=2
*M3/4	*	*M3/4	*	*M3/4	*	*M3/4	*	*M3/4	*M3/4	*	*M3/4	*M3/4	*	*M3/4	*	*M3/4	*	*M3/4	*	*M3/4	*	*M3/4	*	*M3/4	*	*M3/4	*	*M3/4	*	*M3/4	*
4%3r	.	4F`u 4A 4c	.	4%3r	.	4%3r	.	4%3r	4%3r	.	4%3r	4%3r	.	4F	.	4%3r	.	4%3r	.	4%3r	.	4%3r	.	4%3r	.	4%3r	.	4%3r	.	4%3r	.
.	.	4F`u 4A 4c	.	.	.	.	.	.	.	.	.	.	.	4FF	.	.	.	.	.	.	.	.	.	.	.	.	.	.	.	.	.
.	.	4F`u 4A 4c	.	.	.	.	.	.	.	.	.	.	.	4BB	.	.	.	.	.	.	.	.	.	.	.	.	.	.	.	.	.
=3	=3	=3	=3	=3	=3	=3	=3	=3	=3	=3	=3	=3	=3	=3	=3	=3	=3	=3	=3	=3	=3	=3	=3	=3	=3	=3	=3	=3	=3	=3	=3
*M2/2	*	*M2/2	*	*M2/2	*	*M2/2	*	*M2/2	*M2/2	*	*M2/2	*M2/2	*	*M2/2	*	*M2/2	*	*M2/2	*	*M2/2	*	*M2/2	*	*M2/2	*	*M2/2	*	*M2/2	*	*M2/2	*
1r	.	1r	.	1r	.	1r	.	4r	4r	.	1r	1r	.	4F#X	.	1r	.	1r	.	1r	.	1r	.	1r	.	1r	.	1r	.	1r	.
*	*	*	*	*	*	*	*	*8ba	*	*	*	*	*	*	*	*	*	*	*	*	*	*	*	*	*	*	*	*	*	*	*
!	!	!	!	!	!	!	!	!LO:TX:b:i:t=senza ped.	!LO:TX:a:t=(molto ritmico)	!LO:DY:t=%s secco	!	!	!	!	!	!	!	!	!	!	!	!	!	!	!	!	!	!	!	!	!
.	.	.	.	.	.	.	.	4FFFn	4F 4A 4c	mp	.	.	.	4FFn	.	.	.	.	.	.	.	.	.	.	.	.	.	.	.	.	.
.	.	.	.	.	.	.	.	4..BBB	4..F 4..A 4..c	.	.	.	.	4..BB	.	.	.	.	.	.	.	.	.	.	.	.	.	.	.	.	.
.	.	.	.	.	.	.	.	16FF#X	16F 16A 16c	.	.	.	.	16F#	.	.	.	.	.	.	.	.	.	.	.	.	.	.	.	.	.
=4	=4	=4	=4	=4	=4	=4	=4	=4	=4	=4	=4	=4	=4	=4	=4	=4	=4	=4	=4	=4	=4	=4	=4	=4	=4	=4	=4	=4	=4	=4	=4
*M3/4	*	*M3/4	*	*M3/4	*	*M3/4	*	*M3/4	*M3/4	*	*M3/4	*M3/4	*	*M3/4	*	*M3/4	*	*M3/4	*	*M3/4	*	*M3/4	*	*M3/4	*	*M3/4	*	*M3/4	*	*M3/4	*
4%3r	.	4%3r	.	4%3r	.	4%3r	.	4FFFn	4F 4A 4c	.	4%3r	4%3r	.	4FF	.	4%3r	.	4%3r	.	4%3r	.	4%3r	.	4%3r	.	4%3r	.	4%3r	.	4%3r	.
.	.	.	.	.	.	.	.	4BBB	4F 4A 4c	.	.	.	.	4BB	.	.	.	.	.	.	.	.	.	.	.	.	.	.	.	.	.
.	.	.	.	.	.	.	.	4FF	4F 4A 4c	.	.	.	.	4F	.	.	.	.	.	.	.	.	.	.	.	.	.	.	.	.	.
=5	=5	=5	=5	=5	=5	=5	=5	=5	=5	=5	=5	=5	=5	=5	=5	=5	=5	=5	=5	=5	=5	=5	=5	=5	=5	=5	=5	=5	=5	=5	=5
*M2/2	*	*M2/2	*	*M2/2	*	*M2/2	*	*M2/2	*M2/2	*	*M2/2	*M2/2	*	*M2/2	*	*M2/2	*	*M2/2	*	*M2/2	*	*M2/2	*	*M2/2	*	*M2/2	*	*M2/2	*	*M2/2	*
1r	.	4r	.	1r	.	1r	.	4FFFn	4r	.	1r	1r	.	4FFn	.	1r	.	1r	.	1r	.	1r	.	1r	.	1r	.	1r	.	1r	.
.	.	8F^L 8A 8c	.	.	.	.	.	4BBB	8F^L 8A 8c	.	.	.	.	4BB	.	.	.	.	.	.	.	.	.	.	.	.	.	.	.	.	.
.	.	8FJ 8A 8c	.	.	.	.	.	.	8FJ 8A 8c	.	.	.	.	.	.	.	.	.	.	.	.	.	.	.	.	.	.	.	.	.	.
.	.	8FL 8A 8c	.	.	.	.	.	4..FF#X	8FL 8A 8c	.	.	.	.	4..F#X	.	.	.	.	.	.	.	.	.	.	.	.	.	.	.	.	.
.	.	8FJ 8A 8c	.	.	.	.	.	.	8FJ 8A 8c	.	.	.	.	.	.	.	.	.	.	.	.	.	.	.	.	.	.	.	.	.	.
.	.	8FL 8A 8c	.	.	.	.	.	.	8FL 8A 8c	.	.	.	.	.	.	.	.	.	.	.	.	.	.	.	.	.	.	.	.	.	.
.	.	8FJ 8A 8c	.	.	.	.	.	.	8FJ 8A 8c	.	.	.	.	.	.	.	.	.	.	.	.	.	.	.	.	.	.	.	.	.	.
.	.	.	.	.	.	.	.	16BBB	.	.	.	.	.	16BB	.	.	.	.	.	.	.	.	.	.	.	.	.	.	.	.	.
=6	=6	=6	=6	=6	=6	=6	=6	=6	=6	=6	=6	=6	=6	=6	=6	=6	=6	=6	=6	=6	=6	=6	=6	=6	=6	=6	=6	=6	=6	=6	=6
*M3/4	*	*M3/4	*	*M3/4	*	*M3/4	*	*M3/4	*M3/4	*	*M3/4	*M3/4	*	*M3/4	*	*M3/4	*	*M3/4	*	*M3/4	*	*M3/4	*	*M3/4	*	*M3/4	*	*M3/4	*	*M3/4	*
!	!	!	!	!	!	!	!	!	!	!	!	!	!	!	!	!LO:TX:a:t=2. con sord.	!	!LO:TX:a:t=1. con sord.	!	!	!	!	!	!	!	!	!	!	!	!	!
4%3r	.	4%3r	.	4%3r	.	4%3r	.	4FF	4%3r	.	4%3r	4%3r	.	4F	.	4r	.	4r	.	4%3r	.	4%3r	.	4r	.	4%3r	.	4%3r	.	4%3r	.
!	!	!	!	!	!	!	!	!	!	!	!	!	!	!	!	!	!LO:DY:t=%s secco a marc.	!	!LO:DY:t=%s secco a marc.	!	!	!	!	!LO:TX:a:t=Solo	!LO:DY:t=%s secco, non legato a marc.	!	!	!	!	!	!
.	.	.	.	.	.	.	.	4FFF	.	.	.	.	.	4FF	.	4g	mf	4b	mf	.	.	.	.	4dd	mf	.	.	.	.	.	.
.	.	.	.	.	.	.	.	4BBB	.	.	.	.	.	4BB	.	4a	.	4cc	.	.	.	.	.	4dd	.	.	.	.	.	.	.
=7	=7	=7	=7	=7	=7	=7	=7	=7	=7	=7	=7	=7	=7	=7	=7	=7	=7	=7	=7	=7	=7	=7	=7	=7	=7	=7	=7	=7	=7	=7	=7
*M2/2	*	*M2/2	*	*M2/2	*	*M2/2	*	*M2/2	*M2/2	*	*M2/2	*M2/2	*	*M2/2	*	*M2/2	*	*M2/2	*	*M2/2	*	*M2/2	*	*M2/2	*	*M2/2	*	*M2/2	*	*M2/2	*
1r	.	1r	.	1r	.	1r	.	4FF#X	1r	.	1r	1r	.	4F#X	.	4..a	.	4..b	.	1r	.	1r	.	4..dd	.	1r	.	1r	.	1r	.
.	.	.	.	.	.	.	.	4FFFn	.	.	.	.	.	4FFn	.	.	.	.	.	.	.	.	.	.	.	.	.	.	.	.	.
.	.	.	.	.	.	.	.	.	.	.	.	.	.	.	.	16a	.	16cc	.	.	.	.	.	16dd	.	.	.	.	.	.	.
.	.	.	.	.	.	.	.	4..BBB	.	.	.	.	.	4..BB	.	4a	.	4dd	.	.	.	.	.	4bX	.	.	.	.	.	.	.
.	.	.	.	.	.	.	.	.	.	.	.	.	.	.	.	4g	.	4a	.	.	.	.	.	4dd	.	.	.	.	.	.	.
.	.	.	.	.	.	.	.	16FF#	.	.	.	.	.	16F#	.	.	.	.	.	.	.	.	.	.	.	.	.	.	.	.	.
=8	=8	=8	=8	=8	=8	=8	=8	=8	=8	=8	=8	=8	=8	=8	=8	=8	=8	=8	=8	=8	=8	=8	=8	=8	=8	=8	=8	=8	=8	=8	=8
*M3/4	*	*M3/4	*	*M3/4	*	*M3/4	*	*M3/4	*M3/4	*	*M3/4	*M3/4	*	*M3/4	*	*M3/4	*	*M3/4	*	*M3/4	*	*M3/4	*	*M3/4	*	*M3/4	*	*M3/4	*	*M3/4	*
*	*	*	*	*	*	*	*	*	*	*	*	*head:x	*	*	*	*	*	*	*	*	*	*	*	*	*	*	*	*	*	*	*
4%3r	.	4r	.	4%3r	.	4%3r	.	4FFF	4r	.	4%3r	4r	.	4FF	.	4B	.	4g	.	4%3r	.	4%3r	.	4a	.	4%3r	.	4%3r	.	4%3r	.
.	.	4r	.	.	.	.	.	4BBB	4r	.	.	4Rg\	mp	4BB	.	4r	.	4r	.	.	.	.	.	4r	.	.	.	.	.	.	.
.	.	8FL 8A 8c	.	.	.	.	.	4FF#X	8FL 8A 8c	.	.	4Rb\	.	4F#X	.	4r	.	4r	.	.	.	.	.	4r	.	.	.	.	.	.	.
.	.	8FJ 8A 8c	.	.	.	.	.	.	8FJ 8A 8c	.	.	.	.	.	.	.	.	.	.	.	.	.	.	.	.	.	.	.	.	.	.
!!pagebreak:original
=9	=9	=9	=9	=9	=9	=9	=9	=9	=9	=9	=9	=9	=9	=9	=9	=9	=9	=9	=9	=9	=9	=9	=9	=9	=9	=9	=9	=9	=9	=9	=9
*M2/2	*	*M2/2	*	*M2/2	*	*M2/2	*	*M2/2	*M2/2	*	*M2/2	*M2/2	*	*M2/2	*	*M2/2	*	*M2/2	*	*M2/2	*	*M2/2	*	*M2/2	*	*M2/2	*	*M2/2	*	*M2/2	*
!LO:TX:a:t=div. ritmico	!LO:DY:t=%s secco, non legato	!	!	!	!	!	!	!	!	!	!	!	!	!	!	!	!	!	!	!	!	!	!	!	!	!	!	!	!	!	!
4BBB	mp	8FL 8A 8c	.	1r	.	1r	.	4BBB	8FL 8A 8c	.	1r	4Rg\	.	4BB	.	2r	.	2r	.	1r	.	1r	.	2r	.	1r	.	1r	.	1r	.
.	.	8FJ 8A 8c	.	.	.	.	.	.	8FJ 8A 8c	.	.	.	.	.	.	.	.	.	.	.	.	.	.	.	.	.	.	.	.	.	.
4FF#X	.	8FL 8A 8c	.	.	.	.	.	4FF#X	8FL 8A 8c	.	.	4r	.	4F#X	.	.	.	.	.	.	.	.	.	.	.	.	.	.	.	.	.
.	.	8FJ 8A 8c	.	.	.	.	.	.	8FJ 8A 8c	.	.	.	.	.	.	.	.	.	.	.	.	.	.	.	.	.	.	.	.	.	.
!	!	!	!	!	!	!	!	!	!	!	!	!	!	!	!	!LO:TX:a:i:t=sim.	!	!LO:TX:a:i:t=sim.	!	!	!	!	!	!LO:TX:a:i:t=sim.	!	!	!	!	!	!	!
.	.	.	.	.	.	.	.	.	.	.	.	8qRg/	.	.	.	.	.	.	.	.	.	.	.	.	.	.	.	.	.	.	.
4..FFFn	.	8FL 8A 8c	.	.	.	.	.	4..FFFn	8FL 8A 8c	.	.	4Rb\	.	4..FFn	.	4g	.	4b	.	.	.	.	.	4dd	.	.	.	.	.	.	.
.	.	8FJ 8A 8c	.	.	.	.	.	.	8FJ 8A 8c	.	.	.	.	.	.	.	.	.	.	.	.	.	.	.	.	.	.	.	.	.	.
.	.	4r	.	.	.	.	.	.	4r	.	.	4Rg\	.	.	.	4a	.	4b	.	.	.	.	.	4dd	.	.	.	.	.	.	.
16BBB	.	.	.	.	.	.	.	16BBB	.	.	.	.	.	16BB	.	.	.	.	.	.	.	.	.	.	.	.	.	.	.	.	.
=10	=10	=10	=10	=10	=10	=10	=10	=10	=10	=10	=10	=10	=10	=10	=10	=10	=10	=10	=10	=10	=10	=10	=10	=10	=10	=10	=10	=10	=10	=10	=10
*M3/4	*	*M3/4	*	*M3/4	*	*M3/4	*	*M3/4	*M3/4	*	*M3/4	*M3/4	*	*M3/4	*	*M3/4	*	*M3/4	*	*M3/4	*	*M3/4	*	*M3/4	*	*M3/4	*	*M3/4	*	*M3/4	*
4FFn	.	4%3r	.	4%3r	.	4%3r	.	4FF	4%3r	.	4%3r	4Re/	.	4F	.	4%3r	.	4%3r	.	4r	.	4r	.	4%3r	.	4r	.	4r	.	4%3r	.
!	!	!	!	!	!	!	!	!	!	!	!	!	!	!	!	!	!	!	!	!	!LO:DY:t=%s non legato, secco	!	!LO:DY:t=%s non legato, secco	!	!	!	!LO:DY:t=%s non legato, secco	!	!LO:DY:t=%s non legato, secco	!	!
4FFF	.	.	.	.	.	.	.	4FFF	.	.	.	4r	.	4FF	.	.	.	.	.	4e--X 4g-X	mf	4b--X	mf	.	.	4d	mf	4f#X 4a	mf	.	.
4BBB	.	.	.	.	.	.	.	4BBB	.	.	.	4r	.	4BB	.	.	.	.	.	4f-X 4a-X	.	4cc-X	.	.	.	4e	.	4g#X 4b	.	.	.
=11	=11	=11	=11	=11	=11	=11	=11	=11	=11	=11	=11	=11	=11	=11	=11	=11	=11	=11	=11	=11	=11	=11	=11	=11	=11	=11	=11	=11	=11	=11	=11
*M2/2	*	*M2/2	*	*M2/2	*	*M2/2	*	*M2/2	*M2/2	*	*M2/2	*M2/2	*	*M2/2	*	*M2/2	*	*M2/2	*	*M2/2	*	*M2/2	*	*M2/2	*	*M2/2	*	*M2/2	*	*M2/2	*
!	!	!	!	!	!	!LO:TX:a:B:t=div. in 3	!	!	!	!	!	!	!	!	!	!	!	!	!	!	!	!	!	!	!	!	!	!	!	!	!
4FF#X	.	1r	.	1r	.	1r	.	4FF#X	1r	.	1r	1r	.	4F#X	.	4r	.	4r	.	4ff-X 4aa-X	.	4ccc-X	.	4r	.	4ee	.	4gg#X 4bb	.	1r	.
4FFFn	.	.	.	.	.	.	.	4FFFn	.	.	.	.	.	4FFn	.	8r	.	8r	.	4r	.	4r	.	8r	.	4r	.	4r	.	.	.
.	.	.	.	.	.	.	.	.	.	.	.	.	.	.	.	8a	.	8cc	.	.	.	.	.	8dd	.	.	.	.	.	.	.
4..BBB	.	.	.	.	.	.	.	4..BBB	.	.	.	.	.	4..BB	.	4a	.	4dd	.	2r	.	2r	.	4bX	.	2r	.	2r	.	.	.
.	.	.	.	.	.	.	.	.	.	.	.	.	.	.	.	4g	.	4a	.	.	.	.	.	4dd	.	.	.	.	.	.	.
16FF#	.	.	.	.	.	.	.	16FF#	.	.	.	.	.	16F#	.	.	.	.	.	.	.	.	.	.	.	.	.	.	.	.	.
=12	=12	=12	=12	=12	=12	=12	=12	=12	=12	=12	=12	=12	=12	=12	=12	=12	=12	=12	=12	=12	=12	=12	=12	=12	=12	=12	=12	=12	=12	=12	=12
*M3/4	*	*M3/4	*	*M3/4	*	*M3/4	*	*M3/4	*M3/4	*	*M3/4	*M3/4	*	*M3/4	*	*M3/4	*	*M3/4	*	*M3/4	*	*M3/4	*	*M3/4	*	*M3/4	*	*M3/4	*	*M3/4	*
4FFF	.	4%3r	.	4r	.	4r	.	4FFF	4r	.	4%3r	4r	.	4FF	.	4B	.	4g	.	4%3r	.	4%3r	.	4a	.	4%3r	.	4%3r	.	4%3r	.
!	!	!	!	!LO:TX:a:B:t=div. in 3	!	!LO:TX:a:t=pizz.	!	!	!	!	!	!	!	!	!	!	!	!	!	!	!	!	!	!	!	!	!	!	!	!	!
4BBB	.	.	.	4r	.	4b 4dd 4ff#X	f	4BBB	4r	.	.	4Rb\	mf	4BB	.	4r	.	4r	.	.	.	.	.	4r	.	.	.	.	.	.	.
4FFn	.	.	.	8GL 8B 8d	mf	4aa 4ccc#X 4eee	.	4FFn	8GL 8B 8d	.	.	4Rg\	.	4Fn	.	4r	.	4r	.	.	.	.	.	4r	.	.	.	.	.	.	.
.	.	.	.	8GJ 8B 8d	.	.	.	.	8GJ 8B 8d	.	.	.	.	.	.	.	.	.	.	.	.	.	.	.	.	.	.	.	.	.	.
!!pagebreak:origina
!!LO:REH:t=46
=13	=13	=13	=13	=13	=13	=13	=13	=13	=13	=13	=13	=13	=13	=13	=13	=13	=13	=13	=13	=13	=13	=13	=13	=13	=13	=13	=13	=13	=13	=13	=13
*M2/2	*	*M2/2	*	*M2/2	*	*M2/2	*	*M2/2	*M2/2	*	*M2/2	*M2/2	*	*M2/2	*	*M2/2	*	*M2/2	*	*M2/2	*	*M2/2	*	*M2/2	*	*M2/2	*	*M2/2	*	*M2/2	*
4FFF	.	1r	.	8GL 8B 8d	.	4r	.	4FFF	8GL 8B 8d	.	1r	4Rb\	.	4FF	.	1r	.	1r	.	4r	.	4r	.	1r	.	4r	.	4r	.	1r	.
.	.	.	.	8GJ 8B 8d	.	.	.	.	8GJ 8B 8d	.	.	.	.	.	.	.	.	.	.	.	.	.	.	.	.	.	.	.	.	.	.
4BBB	.	.	.	4r	.	4aa 4ccc#X 4eee	.	4BBB	4r	.	.	4r	.	4BB	.	.	.	.	.	4bb--X 4ddd-X	.	4fff-X	.	.	.	4aa	.	4ccc#X 4eee	.	.	.
.	.	.	.	.	.	.	.	.	.	.	.	8qRg/	.	.	.	.	.	.	.	.	.	.	.	.	.	.	.	.	.	.	.
4..FF#X	.	.	.	4r	.	4e 4g#X 4b	.	4..FF#X	4r	.	.	4Rb\	.	4..F#X	.	.	.	.	.	4..f-X 4..a-X	.	4..cc-X	.	.	.	4..e	.	4..g#X 4..b	.	.	.
.	.	.	.	8G 8B 8d	.	4r	.	.	8G 8B 8d	.	.	4Rg\	.	.	.	.	.	.	.	.	.	.	.	.	.	.	.	.	.	.	.
.	.	.	.	8r	.	.	.	.	8r	.	.	.	.	.	.	.	.	.	.	.	.	.	.	.	.	.	.	.	.	.	.
16BBB	.	.	.	.	.	.	.	16BBB	.	.	.	.	.	16BB	.	.	.	.	.	16dd-X' 16ff-X	.	16aa-'	.	.	.	16cc#X'	.	16ee' 16gg#X	.	.	.
=14	=14	=14	=14	=14	=14	=14	=14	=14	=14	=14	=14	=14	=14	=14	=14	=14	=14	=14	=14	=14	=14	=14	=14	=14	=14	=14	=14	=14	=14	=14	=14
*M3/4	*	*M3/4	*	*M3/4	*	*M3/4	*	*M3/4	*M3/4	*	*M3/4	*M3/4	*	*M3/4	*	*M3/4	*	*M3/4	*	*M3/4	*	*M3/4	*	*M3/4	*	*M3/4	*	*M3/4	*	*M3/4	*
4FFn	.	4%3r	.	4%3r	.	4r	.	4FF	4%3r	.	4%3r	4Re/	.	4F	.	4%3r	.	4%3r	.	4e--X 4g-X	.	4b--X	.	4%3r	.	4d	.	4f#X 4a	.	4%3r	.
4FFFn	.	.	.	.	.	4r	.	4FFF	.	.	.	4r	.	4FF	.	.	.	.	.	4cc 4ee-	.	4gg-X	.	.	.	4b	.	4dd#X 4ff#X	.	.	.
!	!	!	!	!	!	!LO:TX:a:t=arco	!	!	!	!	!	!	!	!	!	!	!	!	!	!	!	!	!	!	!	!	!	!	!	!	!
4BBB	.	.	.	.	.	4cc#X 4ee 4ff#X	.	4BBB	.	.	.	4r	.	4BB	.	.	.	.	.	4g-X 4b--X	.	4dd-X	.	.	.	4f#X	.	4a 4cc#X	.	.	.
=||	=||	=||	=||	=||	=||	=||	=||	=||	=||	=||	=||	=||	=||	=||	=||	=||	=||	=||	=||	=||	=||	=||	=||	=||	=||	=||	=||	=||	=||	=||	=||
*-	*-	*-	*-	*-	*-	*-	*-	*-	*-	*-	*-	*-	*-	*-	*-	*-	*-	*-	*-	*-	*-	*-	*-	*-	*-	*-	*-	*-	*-	*-	*-
!!!system-decoration: [(s1[(s2,s3,s4)][(s5,s6)])][(s7,s8)][(s9)][(s10,s11)][({(s12,s13)})][(s14,s15,s16,s17)]
